app/img/arrow-right.svg

<svg enable-background="new 0 0 5 10" viewBox="0 0 5 10" xmlns="http://www.w3.org/2000/svg"><path d="m4.9 4.7-4.2-4.6c-.2-.1-.4-.1-.6 0-.1.2-.1.5 0 .7l3.9 4.2-3.9 4.2c-.1.2-.1.5 0 .7.1.1.2.1.3.1s.2 0 .3-.1l4.2-4.5c.1-.2.1-.3.1-.4s0-.2-.1-.3z"/></svg>

<?xml version="1.0" encoding="utf-8"?>
<!-- Generator: Adobe Illustrator 26.0.3, SVG Export Plug-In . SVG Version: 6.00 Build 0)  -->
<svg version="1.1" id="Layer_1" xmlns="http://www.w3.org/2000/svg" xmlns:xlink="http://www.w3.org/1999/xlink" x="0px" y="0px"
	 viewBox="0 0 5 10" style="enable-background:new 0 0 5 10;" xml:space="preserve">
<path id="XMLID_222_" d="M4.9,4.7L0.7,0.1C0.5,0,0.3,0,0.1,0.1C0,0.3,0,0.6,0.1,0.8L4,5L0.1,9.2C0,9.4,0,9.7,0.1,9.9
	C0.2,10,0.3,10,0.4,10s0.2,0,0.3-0.1l4.2-4.5C5,5.2,5,5.1,5,5C5,4.9,5,4.8,4.9,4.7z"/>
</svg>
